icons/svg/gavel.svg

﻿<?xml version="1.0" encoding="utf-8"?>
<!DOCTYPE svg PUBLIC "-//W3C//DTD SVG 1.1//EN" "http://www.w3.org/Graphics/SVG/1.1/DTD/svg11.dtd">
<svg xmlns="http://www.w3.org/2000/svg" xmlns:xlink="http://www.w3.org/1999/xlink" version="1.1" baseProfile="full" width="24" height="24" viewBox="0 0 24.00 24.00" enable-background="new 0 0 24.00 24.00" xml:space="preserve">
	<path fill="#000000" fill-opacity="1" stroke-linejoin="round" d="M 2.29721,20.2825L 11.9038,10.6759L 10.4896,9.26168L 9.78248,9.96878C 9.39196,10.3593 8.75879,10.3593 8.36827,9.96878L 7.66116,9.26168C 7.27064,8.87115 7.27064,8.23799 7.66116,7.84746L 13.318,2.19061C 13.7085,1.80009 14.3417,1.80008 14.7322,2.19061L 15.4393,2.89771C 15.8299,3.28824 15.8299,3.92141 15.4393,4.31193L 14.7322,5.01904L 16.1464,6.43325C 16.537,6.04273 17.1701,6.04273 17.5607,6.43325C 17.9512,6.82377 17.9512,7.45694 17.5606,7.84746L 18.9749,9.26167L 19.682,8.55456C 20.0725,8.16404 20.7057,8.16404 21.0962,8.55456L 21.8033,9.26167C 22.1938,9.65219 22.1938,10.2854 21.8033,10.6759L 16.1464,16.3327C 15.7559,16.7233 15.1228,16.7233 14.7322,16.3327L 14.0251,15.6256C 13.6346,15.2351 13.6346,14.6019 14.0251,14.2114L 14.7322,13.5043L 13.318,12.0901L 3.71142,21.6967C 3.3209,22.0872 2.68773,22.0872 2.29721,21.6967C 1.90668,21.3062 1.90668,20.673 2.29721,20.2825 Z M 20,19C 21.1046,19 22,19.8954 22,21L 22,22L 12,22L 12,21C 12,19.8954 12.8954,19 14,19L 20,19 Z "/>
</svg>

<svg xmlns="http://www.w3.org/2000/svg" version="1.1" baseProfile="full" width="24" height="24" viewBox="0 0 24.00 24.00" xml:space="preserve"><path fill="#000" fill-opacity="1" stroke-linejoin="round" d="M2.297 20.282l9.607-9.606-1.414-1.414-.708.707c-.39.39-1.023.39-1.414 0L7.66 9.26c-.39-.39-.39-1.024 0-1.415L13.32 2.19c.39-.39 1.024-.39 1.414 0l.707.708c.39.39.39 1.023 0 1.414l-.708.707 1.414 1.413c.39-.39 1.024-.39 1.415 0 .39.39.39 1.024 0 1.414l1.415 1.415.707-.707c.39-.39 1.024-.39 1.414 0l.707.707c.39.39.39 1.023 0 1.414l-5.657 5.657c-.39.39-1.023.39-1.414 0l-.707-.707c-.39-.39-.39-1.024 0-1.415l.707-.706-1.414-1.414-9.607 9.607c-.39.39-1.022.39-1.413 0-.39-.39-.39-1.024 0-1.415zM20 19c1.105 0 2 .895 2 2v1H12v-1c0-1.105.895-2 2-2h6z"/></svg>
